svgs/1F479.svg

<svg xmlns="http://www.w3.org/2000/svg" version="1.1" xmlns:xlink="http://www.w3.org/1999/xlink" preserveAspectRatio="none" x="0px" y="0px" width="72px" height="72px" viewBox="0 0 72 72">
<defs>
<g id="Layer0_0_MEMBER_0_FILL">
<path fill="#2F2F2F" stroke="none" d="
M 58.75 13.45
Q 56.3 11.4 53.85 12.15 51.75 10.45 49.15 9.65 42.25 8.35 36.1 8.3 29.95 8.35 23.1 9.65 20.45 10.45 18.35 12.15 15.9 11.4 13.5 13.45 11.15 15.85 11.1 18.95 5.35 23.7 6.35 30.2 6.9 33.65 6.1 35.8 5.9 36.3 5.45 37.1 4.95 37.9 4.8 38.35 3.8 40.45 3.95 42.75 4.05 43.55 4.7 47.1 4.9 48.1 4.35 49.6 3.6 51.75 3.55 52.05 3.15 54.15 3.8 55.9 4.05 56.45 4.9 57.7 5.6 58.75 5.8 59.55 6.1 60.85 6.7 61.8 9.2 69.05 29.9 68.2 32.85 68.15 35.9 68.15 38.95 68.15 42.3 68 63 69.05 65.5 61.8 66.1 60.85 66.4 59.55 66.6 58.75 67.35 57.7 68.2 56.45 68.4 55.9 69.05 54.15 68.65 52.05 68.6 51.75 67.9 49.6 67.35 48.1 67.55 47.1 68.2 43.55 68.25 42.75 68.4 40.45 67.45 38.35 67.3 37.9 66.75 37.1 66.3 36.3 66.1 35.8 65.3 33.65 65.85 30.2 66.85 23.7 61.15 18.95 61.1 15.85 58.75 13.45 Z"/>
</g>

<g id="Layer0_0_MEMBER_1_FILL">
<path fill="#ED6C30" stroke="none" d="
M 48.8 21.75
Q 46.65 18.9 43.7 18.55
L 28.3 18.55
Q 25.35 18.9 23.2 21.75 22.4 23.15 20.4 23.65 18.95 23.95 17.7 24.75 15.65 25.95 15 27.2 14.2 29 14.35 30.2
L 14.4 30.5
Q 14.6 31.75 14.55 32.45 14.5 33.5 14 34.6 13.45 35.75 12.35 37.35 10.75 39.8 10.35 41.3 9.5 45.6 11.3 49.9 11.7 50.85 13 52.6 14.25 54.35 14.7 55.35 15.6 57.05 15.6 58.65
L 15.6 60.45
Q 15.4 62.35 15.6 63.45 15.9 69.1 21.9 69.1 22.35 69.1 23.45 68.75 24.85 68.35 25.8 68.35
L 26.1 68.35
Q 27.1 68.45 27.75 68.8 28.2060546875 69.1060546875 29.4 70.15 30.63203125 71.1814453125 32.95 71.3 35.323046875 71.424609375 36 71.4 36.7 71.4 39 71.3 41.35 71.2 42.55 70.15 43.8 69.1 44.25 68.8 44.9 68.45 45.9 68.35
L 46.2 68.35
Q 47.15 68.35 48.55 68.75 49.65 69.1 50.1 69.1 56.1 69.1 56.4 63.45 56.6 62.35 56.4 60.45
L 56.4 58.65
Q 56.4 57.05 57.3 55.35 57.75 54.35 59 52.6 60.3 50.85 60.7 49.9 62.5 45.6 61.65 41.3 61.25 39.8 59.65 37.35 58.55 35.75 58 34.6 57.5 33.5 57.45 32.45 57.4 31.75 57.6 30.5
L 57.65 30.2
Q 57.8 29 57 27.2 56.35 25.95 54.3 24.75 53.05 23.95 51.6 23.65 49.6 23.15 48.8 21.75 Z"/>
</g>

<g id="Layer0_0_MEMBER_2_FILL">
<path fill="#FFFFFF" stroke="none" d="
M 43.1 40.9
Q 43.35 41.05 43.6 41.15
L 52.7 39.45
Q 52.9 39.25 53.05 39.1 53.15 39 53.25 38.85 48.3 40.55 43.1 40.9 Z"/>
</g>

<g id="Layer0_0_MEMBER_2_MEMBER_0_FILL">
<path fill="#2F2F2F" stroke="none" d="
M 88.55 73.2
L 88.55 73.25
Q 86.88984375 73.63828125 84.7 75.35 81.45859375 77.8275390625 80.85 78.15
L 80.85 78.15
Q 77.823046875 80.058203125 75 81
L 75 81
Q 73.063671875 81.674609375 72.05 82 68.8591796875 83.25390625 63.65 83.25 58.440625 83.25390625 55.2 82
L 55.25 82
Q 53.215625 81.4111328125 52.25 81
L 52.25 81
Q 49.43828125 79.9548828125 46.45 78.15 45.8419921875 77.828515625 42.65 75.35 40.39765625 73.668359375 38.7 73.2 36.940625 72.78984375 34.9 73.85 32.8419921875 74.86796875 32 76.5 30.36953125 80.0083984375 32.65 85.65
L 32.65 85.65
Q 35.858984375 93.3818359375 35.95 95.35 36.1419921875 98.9083984375 36.6 100.7 37.4380859375 103.9072265625 39.45 105.6 42.458984375 108.0650390625 47.1 108.3 51.61953125 108.496875 55.1 106.45
L 55.05 106.45
Q 57.4390625 104.973828125 58.6 104.25
L 58.55 104.25
Q 60.7953125 102.9046875 62.65 102.7 63.023828125 102.6474609375 63.65 102.65 64.296875 102.6474609375 64.65 102.7 66.5193359375 102.9138671875 68.7 104.25
L 68.7 104.25
Q 69.9091796875 104.9724609375 72.2 106.45
L 72.2 106.45
Q 75.68046875 108.496875 80.15 108.3 84.841015625 108.0650390625 87.8 105.6 89.8162109375 103.9560546875 90.7 100.7 91.11015625 99.1935546875 91.4 95.35 91.4994140625 93.3828125 94.6 85.65 96.9302734375 80.0083984375 95.3 76.5 94.5033203125 74.86953125 92.4 73.85 90.3611328125 72.788671875 88.55 73.2 Z"/>
</g>

<g id="Layer0_0_MEMBER_2_MEMBER_1_MEMBER_0_FILL">
<path fill="#FFFFFF" stroke="none" d="
M 52.15 35.9
Q 53.85 33.85 53.55 31.2 53.4 28.4 51.2 26.55 50.15 25.65 48.95 25.25 45.3 26.75 41.7 27.15 41.65 27.2 41.6 27.25 39.75 29.35 39.95 32.15 40.2 34.95 42.35 36.75 42.9 37.25 43.55 37.65 47.95 37.3 52.15 35.9
M 48.45 28.9
L 48.5 28.95
Q 49.391796875 29.81015625 49.55 31.15
L 49.55 31.15
Q 49.69921875 32.5712890625 48.95 33.6 48.203515625 34.64140625 47.05 34.8 47.0392578125 34.8115234375 47 34.8 45.943359375 35.0267578125 45.1 34.25
L 45.1 34.25
Q 44.1638671875 33.4033203125 44 32.05
L 44 32
Q 43.8869140625 30.653125 44.6 29.55
L 44.6 29.55
Q 45.3611328125 28.5267578125 46.5 28.3 47.5880859375 28.1671875 48.45 28.9 Z"/>

<path fill="#2F2F2F" stroke="none" d="
M 48.5 28.95
L 48.45 28.9
Q 47.5880859375 28.1671875 46.5 28.3 45.3611328125 28.5267578125 44.6 29.55
L 44.6 29.55
Q 43.8869140625 30.653125 44 32
L 44 32.05
Q 44.1638671875 33.4033203125 45.1 34.25
L 45.1 34.25
Q 45.943359375 35.0267578125 47 34.8 47.0392578125 34.8115234375 47.05 34.8 48.203515625 34.64140625 48.95 33.6 49.69921875 32.5712890625 49.55 31.15
L 49.55 31.15
Q 49.391796875 29.81015625 48.5 28.95 Z"/>
</g>

<g id="Layer0_0_MEMBER_2_MEMBER_1_MEMBER_1_FILL">
<path fill="#FFFFFF" stroke="none" d="
M 18.5 31.2
Q 18.2 33.85 19.9 35.9 24.1 37.3 28.5 37.65 29.15 37.25 29.7 36.75 31.85 34.95 32.1 32.15 32.3 29.35 30.45 27.25 30.4 27.2 30.35 27.15 26.75 26.75 23.1 25.25 21.9 25.65 20.85 26.55 18.65 28.4 18.5 31.2
M 25.55 28.3
Q 26.688671875 28.5267578125 27.4 29.55
L 27.4 29.55
Q 28.1630859375 30.653125 28.05 32 27.9033203125 33.3875 26.95 34.25
L 26.9 34.25
Q 26.1064453125 35.0267578125 25.05 34.8 25.0107421875 34.8115234375 24.95 34.8 23.846484375 34.64140625 23.05 33.6 22.35078125 32.5712890625 22.5 31.15 22.65 29.81796875 23.55 28.95
L 23.55 28.9
Q 24.46171875 28.1671875 25.55 28.3 Z"/>

<path fill="#2F2F2F" stroke="none" d="
M 27.4 29.55
Q 26.688671875 28.5267578125 25.55 28.3 24.46171875 28.1671875 23.55 28.9
L 23.55 28.95
Q 22.65 29.81796875 22.5 31.15 22.35078125 32.5712890625 23.05 33.6 23.846484375 34.64140625 24.95 34.8 25.0107421875 34.8115234375 25.05 34.8 26.1064453125 35.0267578125 26.9 34.25
L 26.95 34.25
Q 27.9033203125 33.3875 28.05 32 28.1630859375 30.653125 27.4 29.55
L 27.4 29.55 Z"/>
</g>

<g id="Layer0_0_MEMBER_2_MEMBER_2_FILL">
<path fill="#2F2F2F" stroke="none" d="
M 40.9 43.3
Q 41.35 42.8 41.1 42.2 38.3697265625 39.5533203125 37.4 34.95 37 34.25 36.05 34.2 35.05 34.2 34.7 34.9 34 38.55 30.95 42.2 30.6 42.75 31.05 43.3 31.5 43.8 32.25 43.8
L 39.7 43.8
Q 40.5 43.8 40.9 43.3 Z"/>
</g>

<g id="Layer0_0_MEMBER_3_MEMBER_0_FILL">
<path fill="#ED6C30" stroke="none" d="
M 41.25 22.2
Q 43.65 19.85 42.2 17.65 39.7 15.05 38.35 13.55 37.1 12.1 34.45 8.55 32.05 5.25 30.5 3.6 29.15 2.1 27.75 1.9 25.65 1.6 24.55 3.65 23.75 5.15 23.6 7.55 23.25 12.7 25.25 19.1 26.1 21.8 26.75 23.2 27.9 25.7 29.4 26.55 30.05 26.9 30.85 27 35.35 27.75 41.25 22.2 Z"/>
</g>

<g id="Layer0_0_MEMBER_3_MEMBER_1_FILL">
<path fill="#ED6C30" stroke="none" d="
M 102.1 19.1
Q 104.1 12.7 103.75 7.55 103.65 5.2 102.8 3.65 101.7 1.6 99.6 1.9 98.3 2.1 96.85 3.6 95.25 5.3 92.85 8.55 90.25 12.15 89 13.55 86 16.3 85.15 17.65 83.7 19.85 86.1 22.2 92 27.75 96.55 27 97.3 26.9 97.95 26.55 99.5 25.7 100.65 23.2 101.25 21.9 102.1 19.1 Z"/>
</g>

<g id="Layer0_0_MEMBER_4_FILL">
<path fill="#FFFFFF" stroke="none" d="
M 38.8 54.55
Q 38.55 55.05 38.45 55.6
L 38.45 56.1
Q 38.4 56.25 38.55 56.3 38.55 56.35 38.8 56.45
L 41.75 57.25
Q 42.6 57.05 42.45 55.25 42.25 53.45 41.45 53.1 40.65 52.8 39.9 53.3 39.25 53.75 38.8 54.55
M 48.15 45.6
Q 47.7 44.9 46.65 45.1 45.9 45.2 45.05 45.7 43.05 46.7 42.95 48.1 42.85 49.15 44.2 50.4 44.95 51.1 46.35 52.25 48.15 53.75 48.65 53.85 49.75 54.1 49.7 51.85 49.7 50.5 49.4 48.9 49.2 47.25 48.15 45.6 Z"/>
</g>

<g id="Layer0_0_MEMBER_4_MEMBER_0_FILL">
<path fill="#FFFFFF" stroke="none" d="
M 32.65 54.6
Q 32.55 54.05 32.3 53.55 31.85 52.75 31.2 52.3 30.45 51.8 29.65 52.1 28.85 52.45 28.65 54.25 28.5 56.05 29.35 56.25
L 32.3 55.45
Q 32.55 55.35 32.55 55.3 32.7 55.25 32.65 55.1
L 32.65 54.6 Z"/>
</g>

<g id="Layer0_0_MEMBER_4_MEMBER_1_FILL">
<path fill="#FFFFFF" stroke="none" d="
M 40 87.95
Q 39.6 90.2 39.6 92.1 39.55 95.3 41.05 94.95 41.8 94.8 44.3 92.65 46.3 91.1 47.35 90.1 49.2 88.3 49.05 86.85 48.95 84.9 46.1 83.45 44.95 82.75 43.9 82.6 42.4 82.35 41.8 83.35 40.3 85.65 40 87.95 Z"/>
</g>

<path id="Layer0_0_MEMBER_2_MEMBER_1_MEMBER_0_1_STROKES" stroke="#2F2F2F" stroke-width="2" stroke-linejoin="round" stroke-linecap="round" fill="none" d="
M 54.2289047241211 38.11492919921876
Q 53.85122985839844 38.276789855957034 53.47355499267578 38.43865051269531 48.94145660400391 39.94934997558594 44.19354400634766 40.32702484130859 43.43819427490235 40.38097839355469 42.628890991210945 40.38097839355469
M 42.19726257324219 28.996778869628905
Q 41.2800521850586 29.104685974121093 40.470748901367195 29.15863952636719
M 50.020527648925786 26.946543884277343
Q 46.08191833496094 28.565150451660156 42.19726257324219 28.996778869628905
M 51.5851806640625 26.245147705078125
Q 50.82983093261719 26.568869018554686 50.020527648925786 26.946543884277343"/>

<path id="Layer0_0_MEMBER_2_MEMBER_1_MEMBER_1_1_STROKES" stroke="#2F2F2F" stroke-width="2" stroke-linejoin="round" stroke-linecap="round" fill="none" d="
M 17.918164062499997 38.11492919921876
Q 18.295838928222658 38.276789855957034 18.67351379394531 38.43865051269531
M 20.561888122558592 26.245147705078125
Q 21.317237854003906 26.568869018554686 22.126541137695312 26.946543884277343 26.065150451660156 28.565150451660156 29.94980621337891 28.996778869628905
M 27.953524780273437 40.32702484130859
Q 28.708874511718747 40.38097839355469 29.518177795410157 40.38097839355469
M 29.94980621337891 28.996778869628905
Q 30.8670166015625 29.104685974121093 31.676319885253907 29.15863952636719
M 18.67351379394531 38.43865051269531
Q 23.205612182617188 39.94934997558594 27.953524780273437 40.32702484130859"/>
</defs>

<g id="Layer_1">
<g transform="matrix( 1, 0, 0, 1, 0,0) ">
<use xlink:href="#Layer0_0_MEMBER_0_FILL"/>
</g>

<g transform="matrix( 1, 0, 0, 1, 0,0) ">
<use xlink:href="#Layer0_0_MEMBER_1_FILL"/>
</g>

<g transform="matrix( 1, 0, 0, 1, 0,0) ">
<use xlink:href="#Layer0_0_MEMBER_2_FILL"/>
</g>

<g transform="matrix( 0.606964111328125, 0, 0, 0.606964111328125, -2.8,-0.3) ">
<use xlink:href="#Layer0_0_MEMBER_2_MEMBER_0_FILL"/>
</g>

<g transform="matrix( 1.079071044921875, 0, 0, 1.079071044921875, -2.8,-0.3) ">
<use xlink:href="#Layer0_0_MEMBER_2_MEMBER_1_MEMBER_0_FILL"/>

<use xlink:href="#Layer0_0_MEMBER_2_MEMBER_1_MEMBER_0_1_STROKES" transform="matrix( 0.9267120361328125, 0, 0, 0.9267120361328125, 2.55,0.25) "/>
</g>

<g transform="matrix( 1.079071044921875, 0, 0, 1.079071044921875, -2.8,-0.3) ">
<use xlink:href="#Layer0_0_MEMBER_2_MEMBER_1_MEMBER_1_FILL"/>

<use xlink:href="#Layer0_0_MEMBER_2_MEMBER_1_MEMBER_1_1_STROKES" transform="matrix( 0.9267120361328125, 0, 0, 0.9267120361328125, 2.55,0.25) "/>
</g>

<g transform="matrix( 1.079071044921875, 0, 0, 1.079071044921875, -2.8,-0.3) ">
<use xlink:href="#Layer0_0_MEMBER_2_MEMBER_2_FILL"/>
</g>

<g transform="matrix( 0.606964111328125, 0, 0, 0.606964111328125, -2.55,-0.3) ">
<use xlink:href="#Layer0_0_MEMBER_3_MEMBER_0_FILL"/>
</g>

<g transform="matrix( 0.606964111328125, 0, 0, 0.606964111328125, -2.55,-0.3) ">
<use xlink:href="#Layer0_0_MEMBER_3_MEMBER_1_FILL"/>
</g>

<g transform="matrix( 1.079071044921875, 0, 0, 1.079071044921875, -2.3,-0.3) ">
<use xlink:href="#Layer0_0_MEMBER_4_FILL"/>
</g>

<g transform="matrix( 1.079071044921875, 0, 0, 1.079071044921875, -2.3,0.75) ">
<use xlink:href="#Layer0_0_MEMBER_4_MEMBER_0_FILL"/>
</g>

<g transform="matrix( 0.767242431640625, 0, 0, 0.767242431640625, -9.55,-15) ">
<use xlink:href="#Layer0_0_MEMBER_4_MEMBER_1_FILL"/>
</g>
</g>
</svg>

<svg xmlns="http://www.w3.org/2000/svg" xmlns:xlink="http://www.w3.org/1999/xlink" preserveAspectRatio="none" viewBox="0 0 72 72"><defs><path id="a" fill="#2F2F2F" d="M58.75 13.45q-2.45-2.05-4.9-1.3-2.1-1.7-4.7-2.5-6.9-1.3-13.05-1.35-6.15.05-13 1.35-2.65.8-4.75 2.5-2.45-.75-4.85 1.3-2.35 2.4-2.4 5.5Q5.35 23.7 6.35 30.2q.55 3.45-.25 5.6-.2.5-.65 1.3-.5.8-.65 1.25-1 2.1-.85 4.4.1.8.75 4.35.2 1-.35 2.5-.75 2.15-.8 2.45-.4 2.1.25 3.85.25.55 1.1 1.8.7 1.05.9 1.85.3 1.3.9 2.25 2.5 7.25 23.2 6.4 2.95-.05 6-.05t6.4-.15q20.7 1.05 23.2-6.2.6-.95.9-2.25.2-.8.95-1.85.85-1.25 1.05-1.8.65-1.75.25-3.85-.05-.3-.75-2.45-.55-1.5-.35-2.5.65-3.55.7-4.35.15-2.3-.8-4.4-.15-.45-.7-1.25-.45-.8-.65-1.3-.8-2.15-.25-5.6 1-6.5-4.7-11.25-.05-3.1-2.4-5.5z"/><path id="b" fill="#ED6C30" d="M48.8 21.75q-2.15-2.85-5.1-3.2H28.3q-2.95.35-5.1 3.2-.8 1.4-2.8 1.9-1.45.3-2.7 1.1-2.05 1.2-2.7 2.45-.8 1.8-.65 3l.05.3q.2 1.25.15 1.95-.05 1.05-.55 2.15-.55 1.15-1.65 2.75-1.6 2.45-2 3.95-.85 4.3.95 8.6.4.95 1.7 2.7 1.25 1.75 1.7 2.75.9 1.7.9 3.3v1.8q-.2 1.9 0 3 .3 5.65 6.3 5.65.45 0 1.55-.35 1.4-.4 2.35-.4h.3q1 .1 1.65.45.456.306 1.65 1.35 1.232 1.031 3.55 1.15 2.373.125 3.05.1.7 0 3-.1 2.35-.1 3.55-1.15 1.25-1.05 1.7-1.35.65-.35 1.65-.45h.3q.95 0 2.35.4 1.1.35 1.55.35 6 0 6.3-5.65.2-1.1 0-3v-1.8q0-1.6.9-3.3.45-1 1.7-2.75 1.3-1.75 1.7-2.7 1.8-4.3.95-8.6-.4-1.5-2-3.95-1.1-1.6-1.65-2.75-.5-1.1-.55-2.15-.05-.7.15-1.95l.05-.3q.15-1.2-.65-3-.65-1.25-2.7-2.45-1.25-.8-2.7-1.1-2-.5-2.8-1.9z"/><path id="c" fill="#FFF" d="M43.1 40.9q.25.15.5.25l9.1-1.7.35-.35q.1-.1.2-.25-4.95 1.7-10.15 2.05z"/><path id="d" fill="#2F2F2F" d="M88.55 73.2v.05q-1.66.388-3.85 2.1-3.241 2.478-3.85 2.8Q77.823 80.058 75 81q-1.936.675-2.95 1-3.19 1.254-8.4 1.25-5.21.004-8.45-1.25h.05q-2.034-.589-3-1-2.812-1.045-5.8-2.85-.608-.321-3.8-2.8-2.252-1.682-3.95-2.15-1.76-.41-3.8.65-2.058 1.018-2.9 2.65-1.63 3.508.65 9.15 3.209 7.732 3.3 9.7.192 3.558.65 5.35.838 3.207 2.85 4.9 3.009 2.465 7.65 2.7 4.52.197 8-1.85h-.05q2.39-1.476 3.55-2.2h-.05q2.245-1.345 4.1-1.55.374-.053 1-.05.647-.003 1 .05 1.87.214 4.05 1.55 1.21.722 3.5 2.2 3.48 2.047 7.95 1.85 4.691-.235 7.65-2.7 2.016-1.644 2.9-4.9.41-1.506.7-5.35.1-1.967 3.2-9.7 2.33-5.642.7-9.15-.797-1.63-2.9-2.65-2.039-1.061-3.85-.65z"/><g id="e"><path fill="#FFF" d="M52.15 35.9q1.7-2.05 1.4-4.7-.15-2.8-2.35-4.65-1.05-.9-2.25-1.3-3.65 1.5-7.25 1.9l-.1.1q-1.85 2.1-1.65 4.9.25 2.8 2.4 4.6.55.5 1.2.9 4.4-.35 8.6-1.75m-3.7-7l.05.05q.892.86 1.05 2.2.15 1.421-.6 2.45-.746 1.041-1.9 1.2-.01.012-.05 0-1.057.227-1.9-.55-.936-.847-1.1-2.2V32q-.113-1.347.6-2.45.761-1.023 1.9-1.25 1.088-.133 1.95.6z"/><path fill="#2F2F2F" d="M48.5 28.95l-.05-.05q-.862-.733-1.95-.6-1.139.227-1.9 1.25-.713 1.103-.6 2.45v.05q.164 1.353 1.1 2.2.843.777 1.9.55.04.012.05 0 1.154-.159 1.9-1.2.75-1.029.6-2.45-.158-1.34-1.05-2.2z"/></g><g id="g"><path fill="#FFF" d="M18.5 31.2q-.3 2.65 1.4 4.7 4.2 1.4 8.6 1.75.65-.4 1.2-.9 2.15-1.8 2.4-4.6.2-2.8-1.65-4.9l-.1-.1q-3.6-.4-7.25-1.9-1.2.4-2.25 1.3-2.2 1.85-2.35 4.65m7.05-2.9q1.139.227 1.85 1.25.763 1.103.65 2.45-.147 1.388-1.1 2.25h-.05q-.794.777-1.85.55-.04.012-.1 0-1.104-.159-1.9-1.2-.7-1.029-.55-2.45.15-1.332 1.05-2.2v-.05q.912-.733 2-.6z"/><path fill="#2F2F2F" d="M27.4 29.55q-.711-1.023-1.85-1.25-1.088-.133-2 .6v.05q-.9.868-1.05 2.2-.15 1.421.55 2.45.796 1.041 1.9 1.2.06.012.1 0 1.056.227 1.85-.55h.05q.953-.862 1.1-2.25.113-1.347-.65-2.45z"/></g><path id="i" fill="#2F2F2F" d="M40.9 43.3q.45-.5.2-1.1-2.73-2.647-3.7-7.25-.4-.7-1.35-.75-1 0-1.35.7-.7 3.65-3.75 7.3-.35.55.1 1.1.45.5 1.2.5h7.45q.8 0 1.2-.5z"/><path id="j" fill="#ED6C30" d="M41.25 22.2q2.4-2.35.95-4.55-2.5-2.6-3.85-4.1-1.25-1.45-3.9-5-2.4-3.3-3.95-4.95-1.35-1.5-2.75-1.7-2.1-.3-3.2 1.75-.8 1.5-.95 3.9-.35 5.15 1.65 11.55.85 2.7 1.5 4.1 1.15 2.5 2.65 3.35.65.35 1.45.45 4.5.75 10.4-4.8z"/><path id="k" fill="#ED6C30" d="M102.1 19.1q2-6.4 1.65-11.55-.1-2.35-.95-3.9-1.1-2.05-3.2-1.75-1.3.2-2.75 1.7-1.6 1.7-4 4.95-2.6 3.6-3.85 5-3 2.75-3.85 4.1-1.45 2.2.95 4.55Q92 27.75 96.55 27q.75-.1 1.4-.45 1.55-.85 2.7-3.35.6-1.3 1.45-4.1z"/><path id="l" fill="#FFF" d="M38.8 54.55q-.25.5-.35 1.05v.5q-.05.15.1.2 0 .05.25.15l2.95.8q.85-.2.7-2-.2-1.8-1-2.15-.8-.3-1.55.2-.65.45-1.1 1.25m9.35-8.95q-.45-.7-1.5-.5-.75.1-1.6.6-2 1-2.1 2.4-.1 1.05 1.25 2.3.75.7 2.15 1.85 1.8 1.5 2.3 1.6 1.1.25 1.05-2 0-1.35-.3-2.95-.2-1.65-1.25-3.3z"/><path id="m" fill="#FFF" d="M32.65 54.6q-.1-.55-.35-1.05-.45-.8-1.1-1.25-.75-.5-1.55-.2-.8.35-1 2.15-.15 1.8.7 2l2.95-.8q.25-.1.25-.15.15-.05.1-.2v-.5z"/><path id="n" fill="#FFF" d="M40 87.95q-.4 2.25-.4 4.15-.05 3.2 1.45 2.85.75-.15 3.25-2.3 2-1.55 3.05-2.55 1.85-1.8 1.7-3.25-.1-1.95-2.95-3.4-1.15-.7-2.2-.85-1.5-.25-2.1.75-1.5 2.3-1.8 4.6z"/><path id="f" fill="none" stroke="#2F2F2F" stroke-linecap="round" stroke-linejoin="round" stroke-width="2" d="M54.229 38.115l-.755.324q-4.533 1.51-9.28 1.888-.756.054-1.565.054m-.432-11.384q-.917.108-1.726.162m9.55-2.212q-3.94 1.618-7.824 2.05m9.388-2.752q-.755.324-1.564.702"/><path id="h" fill="none" stroke="#2F2F2F" stroke-linecap="round" stroke-linejoin="round" stroke-width="2" d="M17.918 38.115l.756.324m1.888-12.194q.755.324 1.565.702 3.938 1.618 7.823 2.05m-1.996 11.33q.755.054 1.564.054m.432-11.384q.917.108 1.726.162m-13.002 9.28q4.532 1.51 9.28 1.888"/></defs><use xlink:href="#a"/><use xlink:href="#b"/><use xlink:href="#c"/><use transform="matrix(.60696 0 0 .60696 -2.8 -.3)" xlink:href="#d"/><g transform="translate(-2.8 -.3) scale(1.07907)"><use xlink:href="#e"/><use transform="translate(2.55 .25) scale(.92671)" xlink:href="#f"/></g><g transform="translate(-2.8 -.3) scale(1.07907)"><use xlink:href="#g"/><use transform="translate(2.55 .25) scale(.92671)" xlink:href="#h"/></g><use transform="translate(-2.8 -.3) scale(1.07907)" xlink:href="#i"/><use transform="matrix(.60696 0 0 .60696 -2.55 -.3)" xlink:href="#j"/><use transform="matrix(.60696 0 0 .60696 -2.55 -.3)" xlink:href="#k"/><use transform="translate(-2.3 -.3) scale(1.07907)" xlink:href="#l"/><use transform="translate(-2.3 .75) scale(1.07907)" xlink:href="#m"/><use transform="translate(-9.55 -15) scale(.76724)" xlink:href="#n"/></svg>
